X: 2671
T: Bank Of Turf, The
R: hornpipe
M: 4/4
K: Gmajor
|:(3DEF|:GFGA BABc|(3dcB (3cBA GBAG|FEFG ABcA|(3dcB (3cBA BGFA|
GFGA BABc|(3dcB (3cBA GBAG|F2 g2 (3edc (3BAF|A2 G2 G2:|
|:Bc|dggf gfga|bggf gbag|f2 d2 d2 dc|(3Bcd BG (3ABc AF|
Gggf gfga|bggf gbag|f2 d2 (3dcB (3AGF|A2 G2 G2:|
|:(3DEF|G3 F GABc|d2 G2 GABc|d2 G2 c2 B2|A2 FA dcAF|
G3 F GABc|d2 G2 GBAG|F2 g2 (3edc (3BAF|A2 G2 G2:|

